src/static/logos/aws-route53.svg

<svg width="256" height="310" xmlns="http://www.w3.org/2000/svg" preserveAspectRatio="xMidYMid"><path d="M73.871 282.05l54.097 27.051 5.284-3.942-2.224-301.561L127.968 0 73.871 27.051V282.05" fill="#9D5025"/><path d="M182.065 282.05l-54.097 27.051V0l54.097 27.051V282.05" fill="#F68536"/><path d="M107.571 112.513l-18.984 2.764L0 105.296l.375-.983L14.75 100l1.529.866.346-.866L107 110.563l.571 1.95" fill="#6B3A19"/><path d="M0 63.988l16.279-8.144v45.022L0 105.296V63.988" fill="#9D5025"/><path d="M256 131.063l-90.661 4.869-16.975-1.164 3.198-1.33 88.375-5.063L256 131.063" fill="#6B3A19"/><path d="M107.571 112.513l-91.292-11.647V55.844l91.292 21.414v35.255" fill="#F68536"/><path d="M239.656 82.225l-91.292 15.691v36.852l91.292-5.478.531-1.04L240 83.063l-.344-.838" fill="#9D5025"/><path d="M256 131.063l-16.344-2.125V82.225L256 88.21v42.853" fill="#F68536"/></svg>

<?xml version="1.0" encoding="UTF-8" standalone="no"?>
<svg width="256px" height="310px" viewBox="0 0 256 310" version="1.1" xmlns="http://www.w3.org/2000/svg" xmlns:xlink="http://www.w3.org/1999/xlink" preserveAspectRatio="xMidYMid">
	<g>
		<path d="M73.871,282.05 L127.968,309.101 L133.252,305.159 L131.028,3.598 L127.968,0 L73.871,27.051 L73.871,282.05" fill="#9D5025"></path>
		<path d="M182.065,282.05 L127.968,309.101 L127.968,0 L182.065,27.051 L182.065,282.05" fill="#F68536"></path>
		<path d="M107.571,112.513 L88.587,115.277 L0,105.296 L0.375,104.313 L14.75,100 L16.279,100.866 L16.625,100 L107,110.563 L107.571,112.513" fill="#6B3A19"></path>
		<path d="M0,63.988 L16.279,55.844 L16.279,100.866 L0,105.296 L0,63.988" fill="#9D5025"></path>
		<path d="M256,131.063 L165.339,135.932 L148.364,134.768 L151.562,133.438 L239.937,128.375 L256,131.063" fill="#6B3A19"></path>
		<path d="M107.571,112.513 L16.279,100.866 L16.279,55.844 L107.571,77.258 L107.571,112.513" fill="#F68536"></path>
		<path d="M239.656,82.225 L148.364,97.916 L148.364,134.768 L239.656,129.29 L240.187,128.25 L240,83.063 L239.656,82.225" fill="#9D5025"></path>
		<path d="M256,131.063 L239.656,128.938 L239.656,82.225 L256,88.21 L256,131.063" fill="#F68536"></path>
	</g>
</svg>
